website/static/img/icons/starburst.svg

<svg fill="none" height="64" viewBox="0 0 64 64" width="64" xmlns="http://www.w3.org/2000/svg"><path d="m42.2484 29.2851c-.251.0837-.502.1673-.7111.2928l-14.1386-28.23526c1.5059-.20915 3.0536-.33464 4.6013-.33464h.0418zm-2.2589 1.2968-23.6339-25.64187c-1.4641.79477-2.8445 1.71502-4.1831 2.71894l27.2733 23.46663c.1673-.2091.3346-.3764.5437-.5437zm-1.5895 2.0078-34.25882-15.9791c-.8366 1.4222-1.58955 2.9699-2.17517 4.5177l36.14119 12.1725c.0836-.251.1673-.502.2928-.7111zm-.6693 2.8444c0-.1254.0419-.2509.0419-.3764l-37.7726-2.0915c.0418301 1.6732.20915 3.3045.543791 4.9359l37.228809-2.0915c-.0419-.1255-.0419-.251-.0419-.3765zm.3765 2.1334-33.08759 11.1268c.87843 1.3385 1.88235 2.5934 2.96993 3.7647l30.45226-14.2222c-.1673-.2092-.251-.4602-.3346-.6693zm1.3386 2.1751-22.6719 19.5347c1.2967.6693 2.6771 1.2549 4.0993 1.7568l19.1163-20.7477c-.2091-.1673-.3764-.3346-.5437-.5438zm2.0915 1.5478-10.834 21.6261c.4183 0 .8784.0837 1.2967.0837.8784 0 1.715-.0419 2.5516-.1255l7.6968-21.2915c-.251-.1255-.4602-.2092-.7111-.2928z" fill="#00b7c9"/><path d="m44.4653 41.9596c.1255 0 .251-.0418.3765-.0418l1.0876 17.987c-.9621.4601-1.966.8784-2.9699 1.213l1.1294-19.2c.1255 0 .251.0418.3764.0418zm4.4759-1.6732 9.0771 9.8301c.4601-.6274.8784-1.2549 1.2967-1.8823l-9.8301-8.4497c-.1673.1673-.3346.3346-.5437.5019zm2.2588-5.2287c0 .1255.0418.251.0418.3765s-.0418.2509-.0418.3764l12.549.7111c.1255-.7111.2092-1.4222.251-2.1751zm-1.7151-3.9739 12.2981-10.583c-.3765-.8784-.753-1.715-1.2131-2.5516l-11.6706 12.6327c.251.1673.4183.3346.5856.5019zm-5.396-2.1751c.1255 0 .251-.0419.3764-.0419.1255 0 .251.0419.3765.0419l1.4641-24.67977c-1.2131-.58562-2.5098-1.12942-3.8066-1.54772zm2.5934 12.6326 5.2706 14.6824c.7111-.5438 1.3804-1.1294 2.0497-1.715l-6.6092-13.2183c-.2091.0836-.4601.1673-.7111.2509zm3.8484-3.3045 11.2523 5.2706c.2928-.6693.5438-1.3386.7529-2.0079l-11.7124-3.932c-.0836.2091-.1673.4601-.2928.6693zm.2928-4.936 13.1347-4.434c-.0837-.7947-.2092-1.5895-.3765-2.3843l-13.051 6.1072c.1255.2092.2092.4601.2928.7111zm5.4798-21.5425c-.753-.8366-1.5896-1.6732-2.4262-2.42611l-7.1948 19.95291c.251.0837.502.1674.7111.2929z" fill="#1e384b"/></svg>

<svg width="64" height="64" viewBox="0 0 64 64" fill="none" xmlns="http://www.w3.org/2000/svg">
<path d="M42.2484 29.2851C41.9974 29.3688 41.7464 29.4524 41.5373 29.5779L27.3987 1.34264C28.9046 1.13349 30.4523 1.008 32 1.008H32.0418L42.2484 29.2851ZM39.9895 30.5819L16.3556 4.94003C14.8915 5.7348 13.5111 6.65505 12.1725 7.65897L39.4458 31.1256C39.6131 30.9165 39.7804 30.7492 39.9895 30.5819ZM38.4 32.5897L4.14118 16.6106C3.30458 18.0328 2.55163 19.5805 1.96601 21.1283L38.1072 33.3008C38.1908 33.0498 38.2745 32.7988 38.4 32.5897ZM37.7307 35.4341C37.7307 35.3087 37.7726 35.1832 37.7726 35.0577L0 32.9662C0.0418301 34.6394 0.20915 36.2707 0.543791 37.9021L37.7726 35.8106C37.7307 35.6851 37.7307 35.5596 37.7307 35.4341ZM38.1072 37.5675L5.01961 48.6943C5.89804 50.0328 6.90196 51.2877 7.98954 52.459L38.4418 38.2368C38.2745 38.0276 38.1908 37.7766 38.1072 37.5675ZM39.4458 39.7426L16.7739 59.2773C18.0706 59.9466 19.451 60.5322 20.8732 61.0341L39.9895 40.2864C39.7804 40.1191 39.6131 39.9518 39.4458 39.7426ZM41.5373 41.2904L30.7033 62.9165C31.1216 62.9165 31.5817 63.0002 32 63.0002C32.8784 63.0002 33.715 62.9583 34.5516 62.8747L42.2484 41.5832C41.9974 41.4577 41.7882 41.374 41.5373 41.2904Z" fill="#00B7C9"/>
<path d="M44.4653 41.9596C44.5908 41.9596 44.7163 41.9178 44.8418 41.9178L45.9294 59.9048C44.9673 60.3649 43.9634 60.7832 42.9595 61.1178L44.0889 41.9178C44.2144 41.9178 44.3399 41.9596 44.4653 41.9596ZM48.9412 40.2864L58.0183 50.1165C58.4784 49.4891 58.8967 48.8616 59.315 48.2342L49.4849 39.7845C49.3176 39.9518 49.1503 40.1191 48.9412 40.2864ZM51.2 35.0577C51.2 35.1832 51.2418 35.3087 51.2418 35.4342C51.2418 35.5597 51.2 35.6851 51.2 35.8106L63.749 36.5217C63.8745 35.8106 63.9582 35.0995 64 34.3466L51.2 35.0577ZM49.4849 31.0838L61.783 20.5008C61.4065 19.6224 61.03 18.7858 60.5699 17.9492L48.8993 30.5819C49.1503 30.7492 49.3176 30.9165 49.4849 31.0838ZM44.0889 28.9087C44.2144 28.9087 44.3399 28.8668 44.4653 28.8668C44.5908 28.8668 44.7163 28.9087 44.8418 28.9087L46.3059 4.22893C45.0928 3.64331 43.7961 3.09951 42.4993 2.68121L44.0889 28.9087ZM46.6823 41.5413L51.9529 56.2237C52.664 55.6799 53.3333 55.0943 54.0026 54.5087L47.3934 41.2904C47.1843 41.374 46.9333 41.4577 46.6823 41.5413ZM50.5307 38.2368L61.783 43.5074C62.0758 42.8381 62.3268 42.1688 62.5359 41.4995L50.8235 37.5675C50.7399 37.7766 50.6562 38.0276 50.5307 38.2368ZM50.8235 33.3008L63.9582 28.8668C63.8745 28.0721 63.749 27.2773 63.5817 26.4825L50.5307 32.5897C50.6562 32.7989 50.7399 33.0498 50.8235 33.3008ZM56.3033 11.7583C55.5503 10.9217 54.7137 10.0851 53.8771 9.33219L46.6823 29.2851C46.9333 29.3688 47.1843 29.4525 47.3934 29.578L56.3033 11.7583Z" fill="#1E384B"/>
</svg>
